X: 23774
T: Little Donald's Wife
R: reel
M: 4/4
K: Aminor
B|:A/A/A (AG) ABcA|EAAG A2 AG|A/A/A (AG) ABce|dcBA GABG:|
|:c/c/c (ce) dBGB|cdec A2 AB|cBcd e^fge|dcBA GABG:|

